;FLAVOR:Marlin
;TIME:9903
;Filament used: 8.09934m
;Layer height: 0.16
;MINX:66.43
;MINY:56.973
;MINZ:0.2
;MAXX:151.77
;MAXY:164.827
;MAXZ:11.48
;TARGET_MACHINE.NAME:Creality Ender-5
;Generated with Cura_SteamEngine 5.13.0
M140 S50
M105
M190 S50
M104 S200
M105
M109 S200
M201 X500.00 Y500.00 Z100.00 E5000.00 ;Setup machine max acceleration
M203 X500.00 Y500.00 Z10.00 E50.00 ;Setup machine max feedrate
M204 P500.00 R1000.00 T500.00 ;Setup Print/Retract/Travel acceleration
M205 X8.00 Y8.00 Z0.40 E5.00 ;Setup Jerk
M220 S100 ;Reset Feedrate
M221 S100 ;Reset Flowrate

G28 ;Home

G92 E0 ;Reset Extruder
G1 Z2.0 F3000 ;Move Z Axis up
G1 X10.1 Y20 Z0.28 F5000.0 ;Move to start position
G1 X10.1 Y200.0 Z0.28 F1500.0 E15 ;Draw the first line
G1 X10.4 Y200.0 Z0.28 F5000.0 ;Move to side a little
G1 X10.4 Y20 Z0.28 F1500.0 E30 ;Draw the second line
G92 E0 ;Reset Extruder
G1 Z2.0 F3000 ;Move Z Axis up

M82 ;absolute extrusion mode
G92 E0
G92 E0
G1 F2700 E-5
;LAYER_COUNT:65
;LAYER:0
M107
G0 F6000 X72.838 Y60.51 Z0.2
;TYPE:SKIRT
G1 F2700 E0
G1 F1200 X74.826 Y58.522 E0.09351
G1 X77.211 Y57.234 E0.18366
G1 X78.938 Y57.012 E0.24158
G1 X108.392 Y56.973 E1.22122
G1 X110.378 Y57.568 E1.29018
G1 X111.27 Y58.048 E1.32387
G1 X112.473 Y57.33 E1.37046
G1 X114.191 Y57.048 E1.42837
G1 X144.823 Y56.973 E2.4472
G1 X146.719 Y57.439 E2.51213
G1 X148.747 Y58.492 E2.58814
G1 X150.206 Y60.053 E2.6592
G1 X151.413 Y62.076 E2.73755
G1 X151.695 Y63.794 E2.79546
G1 X151.77 Y138.666 E5.28571
G1 X151.304 Y140.562 E5.35065
G1 X150.251 Y142.59 E5.42665
G1 X148.69 Y144.049 E5.49772
G1 X146.667 Y145.256 E5.57607
G1 X144.949 Y145.538 E5.63398
G1 X121.009 Y145.605 E6.43023
G1 X121.01 Y154.462 E6.72481
G1 X120.514 Y156.457 E6.79319
G1 X119.441 Y158.459 E6.86873
G1 X117.909 Y159.875 E6.93812
G1 X110.702 Y164.196 E7.21761
G1 X108.449 Y164.822 E7.29538
G1 X78.972 Y164.827 E8.27579
G1 X76.797 Y164.232 E8.35079
G1 X69.457 Y159.831 E8.63544
G1 X68.073 Y158.447 E8.70054
G1 X66.846 Y156.421 E8.77932
G1 X66.43 Y154.423 E8.8472
G1 X66.43 Y139.993 E9.32714
G1 X66.926 Y137.998 E9.39552
G1 X67.999 Y135.996 E9.47106
G1 X69.531 Y134.58 E9.54045
G1 X71.28 Y133.531 E9.60828
G1 X71.34 Y64.448 E11.90599
G1 X71.569 Y62.869 E11.95906
G1 X72.838 Y60.51 E12.04815
G0 F6000 X73.161 Y60.753
G1 F1200 X75.068 Y58.846 E12.13785
G1 X77.335 Y57.622 E12.22354
G1 X78.989 Y57.409 E12.27901
G1 X108.334 Y57.373 E13.25503
G1 X110.224 Y57.939 E13.32065
G1 X111.28 Y58.508 E13.36054
G1 X112.613 Y57.713 E13.41217
G1 X114.256 Y57.443 E13.46755
G1 X144.777 Y57.373 E14.48268
G1 X146.576 Y57.815 E14.5443
G1 X148.502 Y58.815 E14.61647
G1 X149.882 Y60.292 E14.68371
G1 X151.03 Y62.216 E14.75822
G1 X151.3 Y63.859 E14.8136
G1 X151.37 Y138.62 E17.30016
G1 X150.928 Y140.419 E17.36178
G1 X149.928 Y142.345 E17.43396
G1 X148.451 Y143.725 E17.50119
G1 X146.527 Y144.873 E17.57571
G1 X144.884 Y145.143 E17.63109
G1 X120.609 Y145.206 E18.43848
G1 X120.61 Y154.414 E18.74474
G1 X120.139 Y156.309 E18.80968
G1 X119.12 Y158.21 E18.88142
G1 X117.666 Y159.554 E18.94728
G1 X110.541 Y163.826 E19.22359
G1 X108.396 Y164.422 E19.29763
G1 X79.026 Y164.427 E20.27448
G1 X76.956 Y163.861 E20.34586
G1 X69.705 Y159.513 E20.62706
G1 X68.389 Y158.197 E20.68897
G1 X67.224 Y156.274 E20.76375
G1 X66.83 Y154.38 E20.82809
G1 X66.83 Y140.041 E21.30501
G1 X67.301 Y138.146 E21.36995
G1 X68.32 Y136.245 E21.44169
G1 X69.774 Y134.901 E21.50755
G1 X71.68 Y133.758 E21.58147
G1 X71.736 Y64.505 E23.88483
G1 X71.955 Y62.995 E23.93558
G1 X73.161 Y60.753 E24.02025
G0 F6000 X73.484 Y60.996
G1 F1200 X75.31 Y59.17 E24.10614
G1 X77.459 Y58.01 E24.18737
G1 X79.04 Y57.806 E24.24039
G1 X108.276 Y57.773 E25.21278
G1 X110.07 Y58.31 E25.27506
G1 X111.29 Y58.968 E25.32117
G1 X112.751 Y58.096 E25.37776
G1 X114.321 Y57.838 E25.43068
G1 X144.73 Y57.773 E26.44209
G1 X146.434 Y58.192 E26.50045
G1 X148.257 Y59.138 E26.56876
G1 X149.561 Y60.534 E26.6323
G1 X150.647 Y62.354 E26.70279
G1 X150.905 Y63.924 E26.75571
G1 X150.97 Y138.573 E29.23854
G1 X150.551 Y140.277 E29.29691
G1 X149.605 Y142.1 E29.36522
G1 X148.209 Y143.404 E29.42875
G1 X146.389 Y144.49 E29.49925
G1 X144.819 Y144.748 E29.55216
G1 X120.209 Y144.807 E30.3707
G1 X120.21 Y154.366 E30.68863
G1 X119.764 Y156.161 E30.75015
G1 X118.798 Y157.963 E30.81815
G1 X117.426 Y159.231 E30.88029
G1 X110.38 Y163.456 E31.15354
G1 X108.343 Y164.022 E31.22386
G1 X79.081 Y164.027 E32.19712
G1 X77.114 Y163.489 E32.26494
G1 X69.953 Y159.195 E32.54266
G1 X68.705 Y157.947 E32.60136
G1 X67.603 Y156.127 E32.67213
G1 X67.23 Y154.336 E32.73297
G1 X67.23 Y140.089 E33.20683
G1 X67.676 Y138.294 E33.26835
G1 X68.642 Y136.492 E33.33635
G1 X70.014 Y135.224 E33.39849
G1 X72.08 Y133.985 E33.47861
G1 X72.132 Y64.562 E35.78763
G1 X72.341 Y63.121 E35.83606
G1 X73.484 Y60.996 E35.91631
G0 F6000 X73.807 Y61.239
G1 F1200 X75.552 Y59.494 E35.99839
G1 X77.583 Y58.398 E36.07515
G1 X79.091 Y58.203 E36.12573
G1 X108.218 Y58.173 E37.0945
G1 X109.916 Y58.681 E37.15344
G1 X111.299 Y59.428 E37.20572
G1 X112.889 Y58.479 E37.26731
G1 X114.386 Y58.233 E37.31777
G1 X144.684 Y58.173 E38.32549
G1 X146.291 Y58.568 E38.38053
G1 X148.012 Y59.461 E38.44501
G1 X149.24 Y60.776 E38.50486
G1 X150.264 Y62.492 E38.57132
G1 X150.51 Y63.989 E38.62178
G1 X150.57 Y138.527 E41.10092
G1 X150.175 Y140.134 E41.15596
G1 X149.282 Y141.855 E41.22045
G1 X147.967 Y143.083 E41.28029
G1 X146.251 Y144.107 E41.34676
G1 X144.754 Y144.353 E41.39722
G1 X119.809 Y144.408 E42.22689
G1 X119.81 Y154.317 E42.55647
G1 X119.388 Y156.014 E42.61463
G1 X118.477 Y157.714 E42.67878
G1 X117.183 Y158.91 E42.73738
G1 X110.219 Y163.086 E43.00746
G1 X108.29 Y163.622 E43.07405
G1 X79.135 Y163.627 E44.04375
G1 X77.273 Y163.118 E44.10795
G1 X70.201 Y158.877 E44.38222
G1 X69.021 Y157.697 E44.43772
G1 X67.981 Y155.98 E44.50449
G1 X67.63 Y154.293 E44.5618
G1 X67.63 Y140.138 E45.0326
G1 X68.052 Y138.441 E45.09076
G1 X68.963 Y136.741 E45.15491
G1 X70.257 Y135.545 E45.21352
G1 X72.48 Y134.212 E45.29973
G1 X72.528 Y64.619 E47.6144
G1 X72.727 Y63.247 E47.66051
G1 X73.807 Y61.239 E47.73634
G0 F6000 X74.13 Y61.482
G1 F1200 X75.794 Y59.818 E47.81461
G1 X77.707 Y58.786 E47.88691
G1 X79.142 Y58.6 E47.93504
G1 X108.16 Y58.573 E48.90018
G1 X109.764 Y59.053 E48.95587
G1 X111.09 Y59.766 E49.00594
G1 X111.289 Y59.941 E49.01475
G1 X111.449 Y59.804 E49.02176
G1 X113.027 Y58.862 E49.08288
G1 X114.451 Y58.628 E49.13088
G1 X144.638 Y58.573 E50.13491
G1 X146.148 Y58.944 E50.18662
G1 X147.767 Y59.784 E50.24729
G1 X148.919 Y61.018 E50.30344
G1 X149.881 Y62.63 E50.36587
G1 X150.115 Y64.054 E50.41387
G1 X150.17 Y138.481 E52.88932
G1 X149.799 Y139.991 E52.94104
G1 X148.959 Y141.61 E53.00171
G1 X147.725 Y142.762 E53.05785
G1 X146.113 Y143.724 E53.12029
G1 X144.689 Y143.958 E53.16829
G1 X119.409 Y144.009 E54.00911
G1 X119.41 Y154.269 E54.35036
G1 X119.013 Y155.866 E54.40509
G1 X118.156 Y157.465 E54.46543
G1 X116.94 Y158.589 E54.5205
G1 X110.058 Y162.716 E54.7874
G1 X108.237 Y163.222 E54.85026
G1 X79.19 Y163.227 E55.81637
G1 X77.431 Y162.746 E55.87702
G1 X70.449 Y158.559 E56.1478
G1 X69.337 Y157.447 E56.20011
G1 X68.36 Y155.833 E56.26286
G1 X68.03 Y154.249 E56.31667
G1 X68.03 Y140.186 E56.78441
G1 X68.427 Y138.589 E56.83914
G1 X69.284 Y136.99 E56.89948
G1 X70.5 Y135.866 E56.95456
G1 X72.88 Y134.439 E57.04686
G1 X72.924 Y64.676 E59.36718
G1 X73.113 Y63.373 E59.41097
G1 X74.13 Y61.482 E59.48239
G0 F6000 X74.453 Y61.725
G1 F1200 X76.036 Y60.142 E59.55685
G1 X77.831 Y59.174 E59.62468
G1 X79.194 Y58.997 E59.67039
G1 X108.102 Y58.973 E60.63188
G1 X109.61 Y59.424 E60.68423
G1 X110.9 Y60.118 E60.73295
G1 X111.279 Y60.497 E60.75078
G1 X111.654 Y60.147 E60.76784
G1 X113.165 Y59.245 E60.82637
G1 X114.516 Y59.023 E60.8719
G1 X144.591 Y58.973 E61.8722
G1 X146.006 Y59.321 E61.92067
G1 X147.522 Y60.107 E61.97747
G1 X148.598 Y61.26 E62.02992
G1 X149.498 Y62.768 E62.08833
G1 X149.72 Y64.119 E62.13387
G1 X149.77 Y138.434 E64.60559
G1 X149.422 Y139.849 E64.65406
G1 X148.636 Y141.365 E64.71086
G1 X147.483 Y142.441 E64.76331
G1 X145.975 Y143.341 E64.82172
G1 X144.624 Y143.563 E64.86726
G1 X119.009 Y143.61 E65.71922
G1 X119.01 Y154.221 E66.07214
G1 X118.638 Y155.718 E66.12344
G1 X117.835 Y157.216 E66.17997
G1 X116.697 Y158.268 E66.23152
G1 X109.897 Y162.346 E66.49524
G1 X108.184 Y162.822 E66.55437
G1 X79.245 Y162.827 E67.51689
G1 X77.589 Y162.374 E67.57399
G1 X70.697 Y158.241 E67.84128
G1 X69.653 Y157.197 E67.89039
G1 X68.738 Y155.686 E67.94914
G1 X68.43 Y154.206 E67.99942
G1 X68.43 Y140.234 E68.46413
G1 X68.802 Y138.737 E68.51543
G1 X69.605 Y137.239 E68.57196
G1 X70.743 Y136.187 E68.62351
G1 X73.28 Y134.666 E68.72189
G1 X73.32 Y64.733 E71.04787
G1 X73.499 Y63.499 E71.08935
G1 X74.453 Y61.725 E71.15634
G0 F6000 X74.776 Y61.968
G1 F1200 X76.278 Y60.466 E71.22699
G1 X77.955 Y59.562 E71.29036
G1 X79.246 Y59.394 E71.33366
G1 X108.044 Y59.373 E72.29148
G1 X109.458 Y59.796 E72.34057
G1 X110.657 Y60.441 E72.38585
G1 X111.269 Y61.053 E72.41464
G1 X111.899 Y60.466 E72.44328
G1 X113.303 Y59.628 E72.49766
G1 X114.581 Y59.418 E72.54074
G1 X144.545 Y59.373 E73.53735
G1 X145.863 Y59.697 E73.58249
G1 X147.277 Y60.43 E73.63546
G1 X148.277 Y61.502 E73.68422
G1 X149.115 Y62.906 E73.7386
G1 X149.325 Y64.184 E73.78168
G1 X149.37 Y138.388 E76.24972
G1 X149.046 Y139.706 E76.29486
G1 X148.313 Y141.12 E76.34783
G1 X147.241 Y142.12 E76.39659
G1 X145.837 Y142.958 E76.45097
G1 X144.559 Y143.168 E76.49405
G1 X118.609 Y143.211 E77.35715
G1 X118.61 Y154.173 E77.72175
G1 X118.263 Y155.57 E77.76963
G1 X117.513 Y156.969 E77.82242
G1 X116.457 Y157.945 E77.87025
G1 X109.736 Y161.976 E78.13091
G1 X108.131 Y162.422 E78.18632
G1 X79.299 Y162.427 E79.14527
G1 X77.748 Y162.003 E79.19875
G1 X70.945 Y157.923 E79.4626
G1 X69.969 Y156.947 E79.5085
G1 X69.116 Y155.539 E79.56326
G1 X68.83 Y154.163 E79.61
G1 X68.83 Y140.282 E80.07169
G1 X69.177 Y138.885 E80.11956
G1 X69.927 Y137.486 E80.17236
G1 X70.983 Y136.51 E80.22018
G1 X73.68 Y134.893 E80.32477
G1 X73.716 Y64.79 E82.65641
G1 X73.885 Y63.625 E82.69556
G1 X74.776 Y61.968 E82.75814
G0 F6000 X75.099 Y62.211
G1 F1200 X76.52 Y60.79 E82.82498
G1 X78.079 Y59.95 E82.88388
G1 X79.298 Y59.791 E82.92476
G1 X107.986 Y59.773 E83.87893
G1 X109.306 Y60.168 E83.92476
G1 X110.414 Y60.764 E83.9666
G1 X111.26 Y61.609 E84.00637
G1 X112.144 Y60.785 E84.04657
G1 X113.441 Y60.011 E84.0968
G1 X114.646 Y59.813 E84.13742
G1 X144.499 Y59.773 E85.13034
G1 X145.72 Y60.073 E85.17215
G1 X147.03 Y60.752 E85.22123
G1 X147.958 Y61.747 E85.26648
G1 X148.732 Y63.044 E85.31672
G1 X148.93 Y64.249 E85.35734
G1 X148.97 Y138.342 E87.82168
G1 X148.67 Y139.563 E87.8635
G1 X147.991 Y140.873 E87.91257
G1 X146.996 Y141.801 E87.95783
G1 X145.699 Y142.575 E88.00806
G1 X144.494 Y142.773 E88.04868
G1 X118.209 Y142.812 E88.92292
G1 X118.21 Y154.124 E89.29916
G1 X117.887 Y155.423 E89.34368
G1 X117.192 Y156.72 E89.39262
G1 X116.214 Y157.624 E89.43692
G1 X109.575 Y161.606 E89.69441
G1 X108.078 Y162.022 E89.74608
G1 X79.354 Y162.027 E90.70145
G1 X77.906 Y161.631 E90.75138
G1 X71.193 Y157.605 E91.01173
G1 X70.285 Y156.697 E91.05444
G1 X69.495 Y155.392 E91.10517
G1 X69.23 Y154.119 E91.14842
G1 X69.23 Y140.331 E91.60701
G1 X69.553 Y139.032 E91.65153
G1 X70.248 Y137.735 E91.70047
G1 X71.226 Y136.831 E91.74477
G1 X74.08 Y135.12 E91.85545
G1 X74.112 Y64.847 E94.19274
G1 X74.271 Y63.751 E94.22957
G1 X75.099 Y62.211 E94.28773
G0 F6000 X75.422 Y62.454
G1 F1200 X76.762 Y61.114 E94.35076
G1 X78.203 Y60.338 E94.40519
G1 X79.35 Y60.188 E94.44367
G1 X107.928 Y60.173 E95.39417
G1 X109.154 Y60.54 E95.43674
G1 X110.171 Y61.087 E95.47515
G1 X111.326 Y62.24 E95.52943
G1 X111.52 Y61.914 E95.54204
G1 X112.386 Y61.107 E95.58142
G1 X113.581 Y60.394 E95.6277
G1 X114.711 Y60.208 E95.66579
G1 X144.453 Y60.173 E96.65501
G1 X145.577 Y60.449 E96.69351
G1 X146.783 Y61.074 E96.73868
G1 X147.636 Y61.989 E96.78029
G1 X148.349 Y63.184 E96.82657
G1 X148.535 Y64.314 E96.86466
G1 X148.57 Y138.296 E99.32531
G1 X148.294 Y139.42 E99.36381
G1 X147.669 Y140.626 E99.40899
G1 X146.754 Y141.479 E99.45059
G1 X145.559 Y142.192 E99.49688
G1 X144.429 Y142.378 E99.53497
G1 X117.809 Y142.413 E100.42035
G1 X117.81 Y154.076 E100.80827
G1 X117.512 Y155.275 E100.84936
G1 X116.871 Y156.471 E100.89449
G1 X115.971 Y157.303 E100.93526
G1 X109.414 Y161.236 E101.18957
G1 X108.025 Y161.622 E101.23751
G1 X79.409 Y161.627 E102.18929
G1 X78.064 Y161.259 E102.23567
G1 X71.441 Y157.287 E102.49253
G1 X70.601 Y156.447 E102.53204
G1 X69.873 Y155.245 E102.57878
G1 X69.63 Y154.076 E102.61849
G1 X69.63 Y140.379 E103.07405
G1 X69.928 Y139.18 E103.11514
G1 X70.569 Y137.984 E103.16028
G1 X71.469 Y137.152 E103.20104
G1 X74.48 Y135.347 E103.3178
G1 X74.508 Y64.904 E105.66075
G1 X74.657 Y63.877 E105.69526
G1 X75.422 Y62.454 E105.749
G0 F6000 X75.745 Y62.697
G1 F1200 X77.004 Y61.438 E105.80822
G1 X78.327 Y60.726 E105.85819
G1 X79.402 Y60.585 E105.89425
G1 X107.87 Y60.573 E106.8411
G1 X109.002 Y60.912 E106.8804
G1 X109.928 Y61.41 E106.91537
G1 X111.226 Y62.706 E106.97638
G1 X111.382 Y63 E106.98745
G1 X111.793 Y62.207 E107.01716
G1 X112.628 Y61.429 E107.05512
G1 X113.721 Y60.777 E107.09745
G1 X114.776 Y60.603 E107.13301
G1 X144.406 Y60.573 E108.11851
G1 X145.435 Y60.826 E108.15375
G1 X146.536 Y61.396 E108.19499
G1 X147.314 Y62.231 E108.23295
G1 X147.966 Y63.324 E108.27528
G1 X148.14 Y64.379 E108.31084
G1 X148.17 Y138.249 E110.76777
G1 X147.917 Y139.278 E110.80301
G1 X147.347 Y140.379 E110.84425
G1 X146.512 Y141.157 E110.8822
G1 X145.419 Y141.809 E110.92453
G1 X144.364 Y141.983 E110.9601
G1 X117.409 Y142.013 E111.85663
G1 X117.41 Y154.028 E112.25625
G1 X117.137 Y155.127 E112.29391
G1 X116.549 Y156.224 E112.33531
G1 X115.731 Y156.98 E112.37235
G1 X109.253 Y160.866 E112.62361
G1 X107.972 Y161.222 E112.66783
G1 X79.463 Y161.227 E113.61604
G1 X78.223 Y160.888 E113.6588
G1 X71.689 Y156.969 E113.91221
G1 X70.917 Y156.197 E113.94852
G1 X70.252 Y155.098 E113.99125
G1 X70.03 Y154.032 E114.02746
G1 X70.03 Y140.427 E114.47997
G1 X70.303 Y139.328 E114.51763
G1 X70.891 Y138.231 E114.55903
G1 X71.709 Y137.475 E114.59608
G1 X74.88 Y135.574 E114.71904
G1 X74.904 Y64.961 E117.06764
G1 X75.043 Y64.003 E117.09984
G1 X75.745 Y62.697 E117.14915
G0 F6000 X76.068 Y62.94
G1 F1200 X77.247 Y61.761 E117.20461
G1 X78.45 Y61.114 E117.25004
G1 X79.454 Y60.982 E117.28372
G1 X107.812 Y60.973 E118.22691
G1 X108.85 Y61.284 E118.26295
G1 X109.685 Y61.733 E118.29449
G1 X110.901 Y62.947 E118.35164
G1 X111.463 Y64.005 E118.39148
G1 X111.599 Y63.451 E118.41046
G1 X112.115 Y62.454 E118.44779
G1 X112.87 Y61.751 E118.48211
G1 X113.861 Y61.16 E118.52048
G1 X114.841 Y60.998 E118.55352
G1 X144.36 Y60.973 E119.53533
G1 X145.292 Y61.202 E119.56725
G1 X146.289 Y61.718 E119.60458
G1 X146.992 Y62.473 E119.6389
G1 X147.583 Y63.464 E119.67727
G1 X147.745 Y64.444 E119.71031
G1 X147.77 Y138.203 E122.16355
G1 X147.541 Y139.135 E122.19547
G1 X147.025 Y140.132 E122.2328
G1 X146.27 Y140.835 E122.26712
G1 X145.279 Y141.426 E122.30549
G1 X144.299 Y141.588 E122.33853
G1 X117.009 Y141.613 E123.2462
G1 X117.01 Y153.98 E123.65753
G1 X116.761 Y154.983 E123.6919
G1 X116.23 Y155.973 E123.72927
G1 X115.488 Y156.659 E123.76288
G1 X109.092 Y160.496 E124.01095
G1 X107.919 Y160.822 E124.05144
G1 X79.518 Y160.827 E124.99607
G1 X78.381 Y160.516 E125.03527
G1 X71.937 Y156.651 E125.28519
G1 X71.233 Y155.947 E125.31831
G1 X70.63 Y154.951 E125.35703
G1 X70.43 Y153.989 E125.38971
G1 X70.43 Y140.475 E125.83919
G1 X70.679 Y139.472 E125.87356
G1 X71.21 Y138.482 E125.91093
G1 X71.952 Y137.796 E125.94454
G1 X75.28 Y135.801 E126.07359
G1 X75.3 Y65.018 E128.42785
G1 X75.429 Y64.129 E128.45772
G1 X76.068 Y62.94 E128.50262
G0 F6000 X76.391 Y63.183
G1 F1200 X77.49 Y62.084 E128.55431
G1 X78.573 Y61.502 E128.59521
G1 X79.506 Y61.379 E128.62651
G1 X107.754 Y61.373 E129.56604
G1 X108.698 Y61.656 E129.59882
G1 X109.442 Y62.056 E129.62691
G1 X110.576 Y63.188 E129.6802
G1 X111.145 Y64.26 E129.72057
G1 X111.264 Y65.072 E129.74787
G1 X111.28 Y135.614 E132.0941
G1 X111.587 Y135.92 E132.10852
G1 X111.77 Y136.03 E132.11562
G1 X111.77 Y64.429 E134.49708
G1 X111.975 Y63.594 E134.52568
G1 X112.438 Y62.699 E134.55919
G1 X113.109 Y62.075 E134.58967
G1 X114.001 Y61.543 E134.62421
